svgs/randomix.svg

<svg xmlns="http://www.w3.org/2000/svg" viewBox="0 0 192 192"><path d="M95.19 127.034V66.585M64.966 96.81h60.449m-30.225 0c-18.54 18.54-32.484 26.355-32.484 44.895a32.679 32.679 0 0 0 42.967 32.126 32.676 32.676 0 0 0 22.346-32.126m-20.494 31.297a14.868 14.868 0 0 0 2.383-10.199 14.868 14.868 0 0 0-14.737-12.928 14.872 14.872 0 0 0-9.802 3.69 14.867 14.867 0 0 0-2.552 19.437M95.19 96.81c18.541-18.541 32.485-26.356 32.485-44.896a32.68 32.68 0 0 0-43.179-33.641 32.68 32.68 0 0 0-21.943 33.641m20.302-31.297a14.868 14.868 0 0 0 2.553 19.437 14.865 14.865 0 0 0 24.538-9.238 14.869 14.869 0 0 0-2.383-10.199M95.19 96.81C76.65 78.269 68.835 64.325 50.295 64.325a32.683 32.683 0 0 0-32.126 22.347 32.676 32.676 0 0 0 32.126 42.967m-31.297-20.494a14.867 14.867 0 0 0 19.437-2.553 14.87 14.87 0 0 0 3.69-9.801 14.864 14.864 0 0 0-23.127-12.354M95.19 96.81c18.541 18.54 26.356 32.484 44.896 32.484a32.68 32.68 0 0 0 33.641-21.944 32.675 32.675 0 0 0-33.641-43.178m31.297 20.303a14.869 14.869 0 0 0-10.199-2.383 14.868 14.868 0 0 0-12.928 14.737c0 3.606 1.312 7.091 3.69 9.802a14.867 14.867 0 0 0 19.437 2.552" fill="none" stroke="#000" stroke-width="12" stroke-linecap="round" stroke-linejoin="round"/></svg>

<svg
    xmlns="http://www.w3.org/2000/svg"
    viewBox="0 0 192 192"
    id="vector">
    <path
        id="path"
        d="M 95.19 127.034 L 95.19 66.585 M 64.966 96.81 L 125.415 96.81 M 95.19 96.81 C 76.65 115.35 62.706 123.165 62.706 141.705 C 62.465 148.754 64.511 155.694 68.538 161.483 C 72.565 167.273 78.361 171.606 85.053 173.831 C 91.745 176.056 98.981 176.056 105.673 173.831 C 112.365 171.606 118.16 167.273 122.187 161.483 C 126.214 155.694 128.261 148.754 128.019 141.705 M 107.525 173.002 C 109.53 170.005 110.377 166.379 109.908 162.803 C 109.438 159.228 107.684 155.943 104.973 153.565 C 102.262 151.188 98.777 149.875 95.171 149.875 C 91.565 149.875 88.08 151.188 85.369 153.565 C 82.659 155.943 80.904 159.228 80.435 162.803 C 79.965 166.379 80.812 170.005 82.817 173.002 M 95.19 96.81 C 113.731 78.269 127.675 70.454 127.675 51.914 C 128.284 44.665 126.456 37.417 122.482 31.324 C 118.508 25.231 112.611 20.637 105.731 18.273 C 98.852 15.909 91.376 15.909 84.496 18.273 C 77.617 20.637 71.72 25.231 67.745 31.324 C 63.771 37.417 61.943 44.665 62.553 51.914 M 82.855 20.617 C 80.851 23.614 80.003 27.241 80.473 30.816 C 80.942 34.391 82.697 37.676 85.408 40.054 C 88.118 42.432 91.604 43.744 95.209 43.744 C 98.815 43.744 102.301 42.432 105.011 40.054 C 107.722 37.676 109.477 34.391 109.946 30.816 C 110.415 27.241 109.568 23.614 107.563 20.617 M 95.19 96.81 C 76.65 78.269 68.835 64.325 50.295 64.325 C 43.246 64.084 36.306 66.131 30.517 70.158 C 24.727 74.185 20.394 79.98 18.169 86.672 C 15.944 93.364 15.944 100.6 18.169 107.292 C 20.394 113.984 24.727 119.779 30.517 123.806 C 36.306 127.834 43.246 129.88 50.295 129.639 M 18.998 109.145 C 21.995 111.149 25.621 111.997 29.197 111.527 C 32.772 111.058 36.057 109.303 38.435 106.592 C 40.812 103.882 42.125 100.396 42.125 96.791 C 42.125 93.185 40.812 89.699 38.435 86.989 C 36.057 84.278 32.772 82.523 29.197 82.054 C 25.621 81.584 21.995 82.432 18.998 84.437 M 95.19 96.81 C 113.731 115.35 121.546 129.294 140.086 129.294 C 147.335 129.904 154.583 128.075 160.676 124.101 C 166.769 120.127 171.363 114.23 173.727 107.35 C 176.091 100.471 176.091 92.995 173.727 86.116 C 171.363 79.236 166.769 73.339 160.676 69.365 C 154.583 65.391 147.335 63.563 140.086 64.172 M 171.383 84.475 C 168.386 82.47 164.759 81.623 161.184 82.092 C 157.609 82.562 154.324 84.316 151.946 87.027 C 149.568 89.738 148.256 93.223 148.256 96.829 C 148.256 100.435 149.568 103.92 151.946 106.631 C 154.324 109.341 157.609 111.096 161.184 111.565 C 164.759 112.035 168.386 111.188 171.383 109.183"
        fill="none"
        stroke="#000000"
        stroke-width="12"
        stroke-linecap="round"
        stroke-linejoin="round"/>
</svg>
